**kern	**kern
*staff1	*staff2
*clefG2	*clefG2
*k[b-]	*k[b-]
*M2/4	*M2/4
*F:	*F:
4cc	4A
=101	=101
(16aLL	(16FLL
32b-L	32GL
32ccJJ	32AJJ
32ddLL	32B-LL
32ee	32c
32ff	32d
32ggJJJ)	32eJJJ)
8aa'L	8f'L
8ccc'J	8a'J
=102	=102
*^	*
(4bb-	8r	(8gL
.	4gg	8eJ
4aa)	.	8fL
.	[8ff	16AL
.	.	16BJJ)
=103	=103	=103
(8ggL	16ffLK]	8c'L
.	8ee	.
8ffJ	.	8C'J
.	[16ddJk	.
8eeL	16ddLK]	8C'L
.	8cc	.
8ffJ	.	8C'J
.	[16ddJk	.
=104	=104	=104
8ggL	16ddLK]	8C'L
.	8ee	.
8aaJ	.	8C'J
.	[16ffJk	.
8gg)	16ffLL]	8C'L
.	16eeJ	.
8r	8cc'J	8A'J
*v	*v	*
=105	=105
(16aLL	(16FLL
32b-L	32GL
32ccJJ	32AJJ
32ddLL	32B-LL
32ee	32c
32ff	32d
32ggJJJ)	32eJJJ)
8aa'L	8f'L
8ccc'J	8a'J
=106	=106
*^	*
(4bb-	8r	(8gL
.	4gg	8eJ
[4aa	.	8fL
.	8ff	8dJ)
=107	=107	=107
8aaL]	4dd	(8B-L
8ggJ	.	8BJ
8ffL	8aL	8cL
[8eeJ	[8b-J	8CJ)
=108	=108	=108
8eeL]	4b-]	8FL
8ggJ	.	8CJ
8ff)	8a	8FF
*v	*v	*
*-	*-
